X:1
T:Das fünft Hauptstïck
T:André Vierendeels
T:Melody by Georg Vogler (1625) (Soprano voice)
T:Source : Catechismus---Würzburg---J.Volmari---1652. Editor : André Vierendeels (15/10/17).
T:Notes : Original clef : C1, other voices supplied editorially Original note values have been halved Text Middle German
T:Das fünft Hauptstïck
T:©
T:©
C:André Vierendeels
Z:©
%%score [ 1 2 3 ]
L:1/8
Q:1/4=85
M:2/2
K:C
V:1 treble nm="Soprano" snm="S"
V:2 treble-8 nm="Tenor" snm="T"
V:3 bass nm="Bass" snm="B"
V:1
"^1)" c4 c2 c2 | B2 A2 c2 A2 | !fermata!G4 c4 | c2 A2 G2 C2 | E2 D2 !fermata!C4 | C4 E2 F2 | %6
w: Das fünft Haupt-|stück nun hin be-|reit: die|Christ- * lich Ge-|rech- tig- keit,|laszt stehn das|
w: Sag her, mein|G'sell und machs nit|lang was|soll man flie- hen|alls ein Schlang?|Flie- hen soll|
 G2 G2 A2 A2 | !fermata!G4 G4 | A2 c2 B2 A2 | B2 B2 !fermata!c4 | c4 B2 A2 | G2 A2 F2 F2 | %12
w: Bösz und thut das|Gut: und|wer Ge- recht durchs|Glau- bens hut,|der musz durch|gan- tze Werck noch|
w: man Las- ter und|Sünd? Alls|die uns Men- schen|bringt ge- schwind,|umb Leib und|Seel, umb Gott und|
 !fermata!E4 G4 | A2 G2 F2 E2 | D2 D2 !fermata!C4 |] %15
w: sehr ge-|rech- ter wer- den,|mehr und Mehr.|
w: Ehr, schei-|den von Gott? O|Bösz- heit schwer.|
V:2
"^2)""^1)" c4 c2 e2 | g2 f2 e2 d2 | !fermata!B4 e4 | g2 d2 d2 G2 | B2 A2 !fermata!G4 | G4 c2 A2 | %6
w: Das fünft Haupt-|stück nun hin be-|reit: die|Christ- * lich Ge-|rech- tig- keit,|leszt stehn das|
w: Da mach die|Rech- nung wer jetzt|wöll, nichts|bleibt ü- brig, al-|lein die Höll.|Sag wel- ches|
 d2 c2 f2 d2 | !fermata!c4 d4 | c2 e2 d2 f2 | e2 g2 !fermata!e4 | g4 d2 f2 | c2 e2 A2 c2 | %12
w: Bösz und thut das|Gut: und|wer Ge- recht durchs|Glau- bens hut,|der musz durch|gan- tze Werck noch|
w: seyn die grös- ste|Sünd? er-|zieh nit lang, ant-|wort mir gschwind.|Die Todt- Sünd|scha- den al- ler-|
 !fermata!c4 e4 | f2 d2 c2 G2 | G2 ^F2 !fermata!G4 |] %15
w: sehr ge-|rech- ter wer- den,|mehr und mehr.|
w: meist, dar-|nach die Sünd in|hei- lig Geist.|
V:3
"^3)""^1)""^4)" C,4 E,2 C,2 | E,2 F,2 C,2 F,2 | !fermata!G,4 C,4 | E,2 D,2 G,2 C,2 | %4
w: Das fünft Haupt-|stück nun hin be-|reit: die|Christ- * lich Ge-|
w: Die Sünd so|in Him- mel Ruf-|fen, die|fremb- * den Sünd|
 E,2 F,2 !fermata!C,4 | E,4 C,2 D,2 | G,2 E,2 D,2 F,2 | !fermata!C,4 G,4 | F,2 C,2 G,2 F,2 | %9
w: rech- tig- keit,|letzt stehn das|Bösz und thut das|Gur: und|wer Ge- recht durchs|
w: dar- * auff,|und was des-|glei- chen Sün- den|mehr, wie-|der- stre- ben gött-|
 G,2 E,2 !fermata!C,4 | E,4 G,2 D,2 | E,2 A,2 D,2 F,2 | !fermata!C,4 C,4 | A,,2 B,,2 A,,2 C,2 | %14
w: Gla- bens hut,|der musz durch|gan- tze Werck noch|sehr ge-|rech- ter wer- den,|
w: li- cher Ehr.|Er- zehl die|Todt- sïnd all- zu-|mal, seynd|ihr nicht sie- ben|
 B,,2 A,,2 !fermata!C,4 |] %15
w: mehr und .mehr.|
w: in der Zahl?|

